svgs/sharp-thin/chart-kanban.svg

<svg xmlns="http://www.w3.org/2000/svg" viewBox="0 0 448 512"><!--! Font Awesome Pro 6.6.0 by @fontawesome - https://fontawesome.com License - https://fontawesome.com/license (Commercial License) Copyright 2024 Fonticons, Inc. --><path d="M336 464l0-416 96 0 0 416-96 0zm-16 16l16 0 96 0 16 0 0-16 0-416 0-16-16 0-96 0-16 0 0 16 0 416 0 16zM112 400l-96 0L16 48l96 0 0 352zM16 416l96 0 16 0 0-16 0-352 0-16-16 0L16 32 0 32 0 48 0 400l0 16 16 0zM272 272l-96 0 0-224 96 0 0 224zm-96 16l96 0 16 0 0-16 0-224 0-16-16 0-96 0-16 0 0 16 0 224 0 16 16 0z"/></svg>

<svg xmlns="http://www.w3.org/2000/svg" viewBox="0 0 448 512"><!--! Font Awesome Pro 6.5.2 by @fontawesome - https://fontawesome.com License - https://fontawesome.com/license (Commercial License) Copyright 2024 Fonticons, Inc. --><path d="M336 464l0-416h96l0 416H336zm-16 16h16 96 16V464l0-416V32H432 336 320V48l0 416v16zM112 400H16L16 48h96l0 352zM16 416h96 16V400l0-352 0-16H112 16 0L0 48 0 400l0 16H16zM272 272l-96 0 0-224 96 0V272zm-96 16l96 0h16V272 48 32H272l-96 0H160l0 16 0 224v16h16z"/></svg>
